!!!COM:	Busnoys, Antoine
!!!CDT:	~1430///-1492/11/06
!!!OTL:	Mon mignault / Gracieuse plaisante muniere
!!!AGN:	Song; Chanson
!!!SCT:	Bus3043
!!!SCA:	Bus3043
!!!voices:	4
**kern	**kern	**kern	**kern
*staff4	*staff3	*staff2	*staff1
*Ivox	*Ivox	*Ivox	*Ivox
*I"Bassus	*I"Tenor	*I"Altus	*I"Superius
*I'B	*I'T	*I'A	*I'S
*clefF4	*clefGv2	*clefGv2	*clefG2
*k[b-]	*k[b-]	*k[b-]	*k[b-]
*M2/1	*M2/1	*M2/1	*M2/1
*met(C|)	*met(C|)	*met(C|)	*met(C|)
=1-	=1-	=1-	=1-
!LO:TX:i:Y=59:t=Mon mignault	!	!LO:TX:Y=62:t=Gracieuse, plaisante	!LO:TX:Y=59:t=Mon mignault
!	!	!	!LO:TX:Z=30:t=Rondeau (second text a virelai)
0G	0r	0g	1.g
.	.	.	2a
=2	=2	=2	=2
1G	0r	1e	1b-
1G	.	1d	1b-
=3	=3	=3	=3
2.A	0r	1c	2.cc
4G	.	.	4b-
2E	.	1c	2g
[2F	.	.	[2a
=4	=4	=4	=4
2F]	0r	1d	2a]
1G	.	.	1b-
.	.	1e	.
4F	.	.	4a
4E	.	.	4g
=5	=5	=5	=5
!	!LO:TX:Y=60:t=Gracieuse, plaisante	!	!
2D	0d	1.f	2f
2.F	.	.	2.d
4G	.	.	4e
2A	.	2e	2f
=6	=6	=6	=6
2B-	1B-	1d	1g
1G	.	.	.
.	1A	1c	1a
2F#i	.	.	.
=7	=7	=7	=7
1.G	1G	1.B-	1b-
.	1G	.	1g
2E	.	2c	.
=8	=8	=8	=8
1F	1A	1d	1r
1E	1B-	[1e	1g
=9	=9	=9	=9
0C	1.c	2e]	2e
.	.	2c	2.a
.	.	[1c	.
.	.	.	4g
.	2B-	.	[2g
=10	=10	=10	=10
0r	1A	1c]	4g]
.	.	.	4f
.	.	.	1f
.	1G	1B-	.
.	.	.	2e
=11	=11	=11	=11
[0FF	1.F	0c	1.f
.	2G	.	2e
=12	=12	=12	=12
1FF]	1A	0r	1c
[1GG	[1B-	.	1B-
=13	=13	=13	=13
1GG]	2B-]	0r	1G
.	2G	.	.
1BB-	[1G	.	[1d
=14	=14	=14	=14
0AA	1G]	0r	2d]
.	.	.	2c
.	1F#i	.	1A
=15	=15	=15	=15
0GG	1G	1g	0B-
.	1r	2g	.
.	.	2g	.
=16	=16	=16	=16
0r	1d	1f	1r
.	2d	1d	1B-
.	2d	.	.
=17	=17	=17	=17
0r	1c	1e	1c
.	1A	1e	1c
=18	=18	=18	=18
1G	1B-	0d	1.d
2G	1B-	.	.
2G	.	.	4c
.	.	.	4B-
=19	=19	=19	=19
1F	0A	0r	2c
.	.	.	2.d
1D	.	.	.
.	.	.	4e
.	.	.	2f
=20	=20	=20	=20
1E	0r	1g	2e
.	.	.	1c
1E	.	2g	.
.	.	2g	2B-
=21	=21	=21	=21
0D	1d	1f	1dN
.	2d	1d	1B-
.	2d	.	.
=22	=22	=22	=22
0r	1c	1e	0A
.	1A	1e	.
=23	=23	=23	=23
1G	1B-	[0d	0r
2G	1B-	.	.
2G	.	.	.
=24	=24	=24	=24
1F	2.A	0d]	1.a
.	4G	.	.
1D	2A	.	.
.	[2B-	.	4g
.	.	.	4f
=25	=25	=25	=25
1E	4B-]	0r	4g
.	4A	.	4f
.	4G	.	4e
.	4F	.	4d
1E	2.G	.	2.c#i
.	4F	.	4Bni
=26	=26	=26	=26
2D	0A	0r	1d
2.F	.	.	.
.	.	.	1f
4E	.	.	.
2D	.	.	.
=27	=27	=27	=27
1C	0r	0g	1e
[1E	.	.	[1c
=28	=28	=28	=28
2E]	0r	1e	1c]
2F	.	.	.
1G	.	1d	1Bni
=29	=29	=29	=29
2C	0r	1c	2c
2.E	.	.	2.g
.	.	1c	.
4D	.	.	4f
[2F	.	.	[2a
=30	=30	=30	=30
4F]	0r	1d	4a]
4E	.	.	4g
1G	.	.	1b-
.	.	1e	.
4F	.	.	4a
4E	.	.	4g
=31	=31	=31	=31
0D	0d	1.f	2.f
.	.	.	4g
.	.	.	2b-
.	.	2e	[2a
=32	=32	=32	=32
0r	1B-	1d	2a]
.	.	.	1g
.	1A	1c	.
.	.	.	2f#i
=33	=33	=33	=33
0E-i	1G	1.B-	0g
.	1G	.	.
.	.	2c	.
=34	=34	=34	=34
1F	1A	1d	1r
1G	1B-	[1e	1g
=35	=35	=35	=35
0C	1.c	2e]	2e
.	.	2c	2g
.	.	[1c	2a
.	2B-	.	[2g
=36	=36	=36	=36
0r	1A	1c]	4g]
.	.	.	4c
.	.	.	1f
.	1G	1B-	.
.	.	.	2e
=37	=37	=37	=37
1.F	1.F	1c	0f
.	.	1f	.
4E	2G	.	.
4D	.	.	.
=38	=38	=38	=38
1C	1A	1e	0r
1BB-	[1B-	2d	.
.	.	[2d	.
=39	=39	=39	=39
0C	2B-]	2d]	1r
.	2G	2c	.
.	[1G	2.c	1e
.	.	4G	.
=40	=40	=40	=40
0D	1G]	2c	1.f
.	.	1B-	.
.	1F	.	.
.	.	2A	2d
=41	=41	=41	=41
1.C	1G	1.c	2e
.	.	.	2.g
.	[1B-	.	.
.	.	.	4f
2BB-	.	2F	[2d
=42	=42	=42	=42
1GG	4B-]	1G	4d]
.	4c	.	4c
.	2.d	.	2B-
1D	.	1F	1A
.	4c	.	.
.	2A	.	.
=43	=43	=43	=43
2BB-	2B-	2r	1G
2C	4A	1c	.
.	4G	.	.
2AA	2F	.	2A
2GG	[2G	2B-	2B-
=44	=44	=44	=44
1G	2G]	2e-i	2G
.	2B-	2.d	1g
1D	1A	.	.
.	.	4c	.
.	.	2A	2f#i
=45	=45	=45	=45
[0GGl	[0Gl	1.B-	[0gl
.	.	2G	.
=46	=46	=46	=46
0GG]	0G]	0B- 0dl	0g]
==	==	==	==
*-	*-	*-	*-
!!!RDF**kern: l=long note in original notation
!!!RDF**kern: i=editorial accidental
!!!RDF**kern: N=signum congruentiae
!!!ENC:	Chris Gage 04-15-2015
!!!END:	2015/05/12/
!!!EED:	Jesse Rodin
!!!EEV:	2015/09/21/
!!!ONB:	Translated from MusicXML and edited on 2015/09/21/ by Craig Sapp
!!muse2ps: C^@{COM}^i2I150v85,85,85,150Q16
